resources/haticons/SVG/menu1.svg

<!-- Generated by IcoMoon.io -->
<svg version="1.1" xmlns="http://www.w3.org/2000/svg" width="24" height="24" viewBox="0 0 24 24">
<title>menu1</title>
<path d="M0.844 3.851h22.076c0.42 0 0.761-0.341 0.761-0.761s-0.341-0.761-0.761-0.761h-22.076c-0.42 0-0.761 0.341-0.761 0.761s0.341 0.761 0.761 0.761zM22.92 11.254h-22.076c-0.42 0-0.761 0.341-0.761 0.761s0.341 0.761 0.761 0.761h22.076c0.42 0 0.761-0.341 0.761-0.761 0.004-0.416-0.337-0.761-0.761-0.761zM22.92 20.205h-22.076c-0.42 0-0.761 0.341-0.761 0.761s0.341 0.761 0.761 0.761h22.076c0.42 0 0.761-0.341 0.761-0.761 0.004-0.42-0.337-0.761-0.761-0.761z"></path>
</svg>

<svg xmlns="http://www.w3.org/2000/svg" width="24" height="24"><path d="M.844 3.851H22.92a.761.761 0 0 0 0-1.522H.844a.761.761 0 0 0 0 1.522zm22.076 7.403H.844a.761.761 0 0 0 0 1.522H22.92a.761.761 0 0 0 0-1.522zm0 8.951H.844a.761.761 0 0 0 0 1.522H22.92a.761.761 0 0 0 0-1.522z"/></svg>
